X:25
T:Lads Come Follow Me. JJo.025
B:J.Johnson Choice Collection Vol 8 1758
Z:vmp.Simon Wilson 2013 www.village-music-project.org.uk
M:6/8
L:1/8
Q:3/8=120
K:G
|:G3B2d|cAcB3|ABc def|gdBG3:|
|:gfe dcB|c3Ade|agf ed^c|d3def|
gfe dcB|ABG FED|EFG AGF|G3G,3:|

